X: 31751
T: Pat's
R: polka
M: 2/4
K: Bminor
|:FE E2|FA BA|F2 E2|F/G/F/E/ DB|
FE E2|FA BA|FA Bd|1 D2 DE:|2 D2 D B/c/||
|:dB BA|Be e2|fd BA|Bd g2|
[1 ba fa|eg fe|ed BA|Be e2:|
[2 ba fa|ef de|Bd AB|FE E2||

